32x32/apps/conky-manager2.svg

<svg xmlns="http://www.w3.org/2000/svg" width="32" height="32" version="1">
 <rect style="opacity:0.2" width="4" height="20" x="25" y="7" rx=".7" ry=".7"/>
 <rect style="opacity:0.2" width="4" height="20" x="14" y="7" rx=".7" ry=".7"/>
 <rect style="fill:#c2352a" width="4" height="20" x="25" y="6" rx=".7" ry=".7"/>
 <rect style="fill:#c2352a" width="4" height="20" x="14" y="6" rx=".7" ry=".7"/>
 <rect style="fill:#c2352a" width="4" height="20" x="2" y="6" rx=".7" ry=".7"/>
 <path style="opacity:0.2" d="M 2.7148438,7 C 2.3191295,7 2,7.2966823 2,7.6660156 L 2,10.333984 C 2,10.703318 2.3191295,11 2.7148438,11 l 8.5703122,0 C 11.680871,11 12,10.703318 12,10.333984 L 12,7.6660156 C 12,7.2966823 11.680871,7 11.285156,7 L 2.7148438,7 Z M 14.976562,7 a 0.97664417,0.8106106 0 0 0 -0.845703,1.2148438 l 3.261719,4.6894532 3.261719,4.689453 A 0.97664417,0.8106106 0 0 0 21.455078,18 0.97664417,0.8106106 0 0 0 22.345703,17.59375 l 3.261719,-4.689453 3.261719,-4.6894532 A 0.97664417,0.8106106 0 0 0 28.023438,7 L 21.5,7 14.976562,7 Z M 2.7148438,23 C 2.3191295,23 2,23.296682 2,23.666016 l 0,2.7968 C 2,26.703318 2.3191295,27 2.7148438,27 l 8.5703122,0 C 11.680871,27 12,26.703318 12,26.333984 l 0,-2.7968 C 12,23.296682 11.680871,23 11.285156,23 l -8.5703122,0 z"/>
 <rect style="fill:#d8564d" width="4" height="10" x="6" y="-12" rx=".7" ry=".7" transform="matrix(0,1,-1,0,0,0)"/>
 <rect style="fill:#d8564d" width="4" height="10" x="22" y="-12" rx=".7" ry=".7" transform="matrix(0,1,-1,0,0,0)"/>
 <path style="fill:#d8564d" d="m 14.976338,5.9999995 a 0.97664417,0.8106106 0 0 0 -0.845577,1.2157949 l 3.262784,4.6890406 3.261512,4.68904 a 0.97664417,0.8106106 0 0 0 0.799804,0.405265 0.97664417,0.8106106 0 0 0 0.891351,-0.405265 l 3.261514,-4.68904 3.261512,-4.6890406 A 0.97664417,0.8106106 0 0 0 28.023662,5.9999995 l -6.523027,0 -6.524297,0 z"/>
 <path style="opacity:0.2;fill:#f4f4f7" d="M 2.7148438 6 C 2.3191294 6 2 6.2966823 2 6.6660156 L 2 7.6660156 C 2 7.2966823 2.3191294 7 2.7148438 7 L 11.285156 7 C 11.680871 7 12 7.2966823 12 7.6660156 L 12 6.6660156 C 12 6.2966823 11.680871 6 11.285156 6 L 2.7148438 6 z M 14.976562 6 A 0.97664417 0.8106106 0 0 0 14.130859 7.2148438 L 14.201172 7.3164062 A 0.97664417 0.8106106 0 0 1 14.976562 7 L 21.5 7 L 28.023438 7 A 0.97664417 0.8106106 0 0 1 28.796875 7.3183594 L 28.869141 7.2148438 A 0.97664417 0.8106106 0 0 0 28.023438 6 L 21.5 6 L 14.976562 6 z M 2.7148438 22 C 2.3191294 22 2 22.296682 2 22.666016 L 2 23.666016 C 2 23.296682 2.3191294 23 2.7148438 23 L 11.285156 23 C 11.680871 23 12 23.296682 12 23.666016 L 12 22.666016 C 12 22.296682 11.680871 22 11.285156 22 L 2.7148438 22 z"/>
 <circle style="fill:#f29312" cx="16" cy="23" r="8"/>
 <path style="opacity:0.3" d="M 23.979,23.424 A 8,8 0 0 1 16,31 8,8 0 0 1 8.021,23.576 8,8 0 0 0 8,24 8,8 0 0 0 16,32 8,8 0 0 0 24,24 8,8 0 0 0 23.979,23.424 Z"/>
 <path style="fill:#f4f4f7;fill-rule:evenodd" d="M 16,20 C 16,20 15.521,19.99 15.026,20.24 14.532,20.487 14,21.083 14,22 H 15 C 15,21 16,21 16,21 16,21 17,21 17,22 17,22.375 16.872,22.657 16.637,22.958 16.402,23.258 16.055,23.553 15.68,23.866 15.305,24.178 14.902,24.508 14.575,24.926 14.247,25.345 14,25.875 14,26.5 V 27 H 18 V 26 H 15.091 C 15.152,25.843 15.243,25.695 15.363,25.543 15.598,25.242 15.945,24.947 16.32,24.634 16.695,24.322 17.098,23.992 17.425,23.574 17.752,23.155 18,22.625 18,22 18,21.083 17.468,20.487 16.974,20.24 16.479,19.993 16,20 16,20 Z"/>
</svg>

<svg xmlns="http://www.w3.org/2000/svg" width="32" height="32" version="1"><rect style="opacity:.2" width="4" height="20" x="25" y="7" rx=".7" ry=".7"/><rect style="opacity:.2" width="4" height="20" x="14" y="7" rx=".7" ry=".7"/><rect style="fill:#c2352a" width="4" height="20" x="25" y="6" rx=".7" ry=".7"/><rect style="fill:#c2352a" width="4" height="20" x="14" y="6" rx=".7" ry=".7"/><rect style="fill:#c2352a" width="4" height="20" x="2" y="6" rx=".7" ry=".7"/><path style="opacity:.2" d="M2.715 7C2.319 7 2 7.297 2 7.666v2.668c0 .37.32.666.715.666h8.57c.396 0 .715-.297.715-.666V7.666c0-.37-.32-.666-.715-.666h-8.57zm12.262 0a.977.81 0 0 0-.846 1.215l3.262 4.69 3.261 4.689a.977.81 0 0 0 .801.406.977.81 0 0 0 .89-.406l3.262-4.69 3.262-4.69A.977.81 0 0 0 28.023 7H14.977zM2.715 23c-.396 0-.715.297-.715.666v2.797c0 .24.32.537.715.537h8.57c.396 0 .715-.297.715-.666v-2.797c0-.24-.32-.537-.715-.537h-8.57z"/><rect style="fill:#d8564d" width="4" height="10" x="6" y="-12" rx=".7" ry=".7" transform="rotate(90)"/><rect style="fill:#d8564d" width="4" height="10" x="22" y="-12" rx=".7" ry=".7" transform="rotate(90)"/><path style="fill:#d8564d" d="M14.976 6a.977.81 0 0 0-.845 1.216l3.263 4.689 3.261 4.689a.977.81 0 0 0 .8.405.977.81 0 0 0 .891-.405l3.262-4.69 3.261-4.688A.977.81 0 0 0 28.024 6H14.976z"/><path style="opacity:.2;fill:#f4f4f7" d="M2.715 6C2.319 6 2 6.297 2 6.666v1c0-.37.32-.666.715-.666h8.57c.396 0 .715.297.715.666v-1c0-.37-.32-.666-.715-.666h-8.57zm12.262 0a.977.81 0 0 0-.846 1.215l.07.101A.977.81 0 0 1 14.977 7h13.046a.977.81 0 0 1 .774.318l.072-.103A.977.81 0 0 0 28.023 6H14.977zM2.715 22c-.396 0-.715.297-.715.666v1c0-.37.32-.666.715-.666h8.57c.396 0 .715.297.715.666v-1c0-.37-.32-.666-.715-.666h-8.57z"/><circle style="fill:#f29312" cx="16" cy="23" r="8"/><path style="opacity:.3" d="M23.979 23.424A8 8 0 0 1 16 31a8 8 0 0 1-7.979-7.424A8 8 0 0 0 8 24a8 8 0 0 0 8 8 8 8 0 0 0 8-8 8 8 0 0 0-.021-.576z"/><path style="fill:#f4f4f7;fill-rule:evenodd" d="M16 20s-.479-.01-.974.24C14.532 20.487 14 21.083 14 22h1c0-1 1-1 1-1s1 0 1 1c0 .375-.128.657-.363.958-.235.3-.582.595-.957.908-.375.312-.778.642-1.105 1.06-.328.419-.575.949-.575 1.574v.5h4v-1h-2.909c.061-.157.152-.305.272-.457.235-.301.582-.596.957-.909.375-.312.778-.642 1.105-1.06.327-.419.575-.949.575-1.574 0-.917-.532-1.513-1.026-1.76C16.479 19.993 16 20 16 20z"/></svg>
